icons/Color/scalable/zoom-fit-best.svg

<svg height="16" viewBox="0 0 16 16" width="16" xmlns="http://www.w3.org/2000/svg"><g stroke="#555753" stroke-linecap="round"><rect fill="#eeeeec" height="14.99999925463" rx="3.20737584063" ry="3.20278947052" stroke-width=".9999999247" width="14.99999925463" x=".49999978557" y=".50000097688"/><path d="m3.9999996 3.5000027c-.26834 0-.5.23166-.5.5v2.4999999h2v-.9999999h1v-2zm5.5 0v2h1.0000004v.9999999h2v-2.4999999c0-.26834-.23166-.5-.5-.5zm-6 5.9999999v2.5000004c0 .26834.23166.5.5.5h2.5v-2h-1v-1.0000004zm7.0000004 0v1.0000004h-1.0000004v2h2.5000004c.26834 0 .5-.23166.5-.5v-2.5000004z"/></g></svg>

<?xml version="1.0" encoding="UTF-8" standalone="no"?>
<!-- Created with Inkscape (http://www.inkscape.org/) -->

<svg
   xmlns:dc="http://purl.org/dc/elements/1.1/"
   xmlns:cc="http://creativecommons.org/ns#"
   xmlns:rdf="http://www.w3.org/1999/02/22-rdf-syntax-ns#"
   xmlns:svg="http://www.w3.org/2000/svg"
   xmlns="http://www.w3.org/2000/svg"
   xmlns:sodipodi="http://sodipodi.sourceforge.net/DTD/sodipodi-0.dtd"
   xmlns:inkscape="http://www.inkscape.org/namespaces/inkscape"
   id="svg7384"
   height="16"
   width="16"
   version="1.1"
   sodipodi:docname="gimp-zoom-fit-best.svg"
   viewBox="0 0 16 16"
   inkscape:version="0.92pre1 unknown">
  <defs
     id="defs9" />
  <sodipodi:namedview
     pagecolor="#ffffff"
     bordercolor="#666666"
     borderopacity="1"
     objecttolerance="10"
     gridtolerance="10"
     guidetolerance="10"
     inkscape:pageopacity="0"
     inkscape:pageshadow="2"
     inkscape:window-width="1346"
     inkscape:window-height="939"
     id="namedview7"
     showgrid="true"
     inkscape:zoom="21.59375"
     inkscape:cx="-5.7483425"
     inkscape:cy="7.5484805"
     inkscape:window-x="45"
     inkscape:window-y="72"
     inkscape:window-maximized="0"
     inkscape:current-layer="svg7384">
    <inkscape:grid
       type="xygrid"
       id="grid4312" />
  </sodipodi:namedview>
  <metadata
     id="metadata90">
    <rdf:RDF>
      <cc:Work
         rdf:about="">
        <dc:format>image/svg+xml</dc:format>
        <dc:type
           rdf:resource="http://purl.org/dc/dcmitype/StillImage" />
        <dc:title>Gnome Symbolic Icon Theme</dc:title>
      </cc:Work>
    </rdf:RDF>
  </metadata>
  <g
     id="g4317">
    <g
       transform="matrix(-0.07682362,0,0,0.07682362,18.70247,-1.0767273)"
       id="use4898-6"
       inkscape:label="Layer 1"
       style="display:inline;enable-background:new"
       clip-path="url(#clipPath7655)">
      <rect
         style="color:#000000;display:inline;overflow:visible;visibility:visible;fill:#eeeeec;fill-opacity:1;stroke:#555753;stroke-width:13.01682949;stroke-linecap:round;stroke-linejoin:miter;stroke-miterlimit:4;stroke-dasharray:none;stroke-dashoffset:0;stroke-opacity:1;marker:none;enable-background:new"
         id="rect6616"
         width="195.25244"
         height="195.25244"
         x="-236.93846"
         y="20.524"
         rx="41.749866"
         ry="41.690166"
         transform="scale(-1,1)" />
    </g>
    <path
       inkscape:connector-curvature="0"
       sodipodi:nodetypes="cccccccccccccccccccccccccccccccc"
       d="m 3.9999996,3.5000027 c -0.26834,0 -0.5,0.23166 -0.5,0.5 v 2.4999999 h 2 V 5.5000027 h 1 v -2 z m 5.5,0 v 2 H 10.5 v 0.9999999 h 2 V 4.0000027 c 0,-0.26834 -0.23166,-0.5 -0.5,-0.5 z m -6,5.9999999 v 2.5000004 c 0,0.26834 0.23166,0.5 0.5,0.5 h 2.5 v -2 h -1 V 9.5000026 Z m 7.0000004,0 V 10.500003 H 9.4999996 v 2 H 12 c 0.26834,0 0.5,-0.23166 0.5,-0.5 V 9.5000026 Z"
       id="rect3099-9-3"
       style="color:#000000;display:inline;overflow:visible;visibility:visible;fill:#000000;stroke:#555753;stroke-width:1;stroke-linecap:round;stroke-linejoin:miter;stroke-miterlimit:4;stroke-dasharray:none;stroke-dashoffset:0;stroke-opacity:1;marker:none;enable-background:new;fill-opacity:1" />
  </g>
</svg>
